!!!COM: Anon.
!!!OTL: O que tens, o/ Juliana
!!!OTL: Romanceiro Folclorico do Brasil
!!!CNT: Brasil
!!!OCY: Brasil
!!!ODT: <1971///
!!!PSR: Irmaos Vitale
!!!PSP: Sao Paulo, Brasil
!!!PDT: 1948///
!!!PPE: Rossini Tavares de Lima
!!!PPG: pages 14-15
!! Romance: Juliana E D. Jorge
!! Place: Bairro de Santa Cecilia, Capital, Sao Paulo, Brasil
**kern
*clefG2
*k[b-e-a-]
*M3/4
*MM100
8g
8ee-
=
4cc
4g
8f
8e-
=
4g
4d
8g
8dd
=
4bn
4g
8an
8b
=
2cc
8g
8g
=
4ff
4dd
8bn
8g
=
4ee-
4cc
8g
8a-
=
4g
8f
8f
8d
8e-
=
2c
==
*-
